X:77
T:The drunken landlady
R:Reel
O:Ireland, Scotland
B:Session tunes 3
S:My arrangement from various sources- mostly web abc's?
Z:Transcription, arrangement, chords:Mike Long
M:C|
L:1/8
K:D
"Em"BE~E2 BAFA|BE~E2 BAFA|"D"ABAF DF~F2|FA~A2 BAFA|\
"Em"BE~E2 BAFA|BE~E2 BAFA|
"D"A2Bc "Bm"dfec|"D"dBAF "Em"E2FA:|\
|:"Em"Beed e2de|"D"f2df "Bm"efdB|"D"ABAF DF~F2|
FA~A2 BAFA|"Em"Beed e2de|"D"f2df "(Bm)"efdB|\
"D"A2Bc "Bm"dfec|"D"dBAF "Em"E2FA:|
